src/assets/icons/myProfile.svg

<svg width="77" height="79" viewBox="0 0 77 79" fill="none" xmlns="http://www.w3.org/2000/svg">
<path d="M34.5296 0.15605C27.2397 1.19163 21.1587 5.04027 17.9288 10.6819C14.2839 17.019 15.168 24.8554 20.1483 30.4661C21.4655 31.9499 23.9195 33.8974 25.7781 34.9484C28.8636 36.7105 32.0936 37.6533 35.919 37.947C42.8119 38.457 48.965 36.525 53.7828 32.3054C58.4924 28.194 60.6035 23.1397 60.0442 17.2817C59.6111 12.7221 57.518 8.90438 53.6385 5.56579C50.4627 2.83001 46.7997 1.11435 42.469 0.326071C40.5563 -0.0294264 36.4062 -0.106708 34.5296 0.15605ZM42.1803 5.04027C45.1215 5.67399 47.1425 6.67865 49.5604 8.67253C51.1844 10.0018 52.7182 11.8256 53.44 13.3095C55.2083 16.9262 55.1542 21.5013 53.2956 24.9327C51.6175 28.024 48.7665 30.5279 45.1757 32.0117C43.2449 32.8154 41.8916 33.1246 39.6361 33.31C34.2589 33.7428 29.5493 32.259 25.8502 28.9822C23.5947 26.9729 22.2775 24.9481 21.5016 22.2742C21.0324 20.6512 21.0866 16.9881 21.6098 15.3188C22.9993 10.8364 27.5464 6.67865 32.5988 5.27212C35.3957 4.4993 39.3113 4.40656 42.1803 5.04027Z" fill="black" fill-opacity="0.7"/>
<path d="M18.1092 38.287C9.12318 39.1371 3.24074 45.0878 0.985209 55.5827C0.371703 58.4731 0.173216 60.1269 0.0288615 63.5428C-0.133537 67.7933 0.371703 70.0963 1.99569 72.6002C3.92643 75.5524 7.30071 77.6699 11.6133 78.6282L13.2373 78.9992H38.4993H63.7613L65.3672 78.6437C71.0331 77.4072 75.057 74.0686 76.5005 69.4162C77.2404 67.0204 77.1501 61.3016 76.284 56.7883C74.1187 45.3196 68.2002 39.1216 58.6367 38.287C57.6443 38.1942 56.5616 38.1633 56.2368 38.2252C55.3707 38.3643 54.1617 38.9052 51.2205 40.5127C48.0267 42.2593 47.8282 42.3366 45.4283 43.0785C42.9021 43.8513 40.9172 44.1604 38.4993 44.1604C36.0813 44.1604 34.0965 43.8513 31.5703 43.0785C29.1343 42.3366 29.008 42.2747 25.4352 40.3272C23.8112 39.4308 22.2233 38.6116 21.8985 38.5034C21.0685 38.1942 19.7693 38.117 18.1092 38.287ZM20.058 42.9239C20.2745 43.0166 21.664 43.7586 23.1436 44.5623C26.2292 46.2625 27.7088 46.8807 30.632 47.6999C36.3159 49.2919 41.657 49.1838 47.6116 47.3599C49.5785 46.7571 51.5273 45.8915 54.3061 44.3459C57.2834 42.6921 57.0668 42.7693 58.5284 42.9239C64.1763 43.5267 68.0017 47.159 70.0768 53.8825C71.376 58.1176 72.0075 65.1502 71.3399 67.8551C70.564 70.9773 68.1099 73.1721 64.3748 74.084C63.2921 74.3468 61.8666 74.3622 38.5895 74.3622C11.5411 74.3622 13.1471 74.4241 10.6209 73.3885C8.90665 72.6929 7.30071 71.3637 6.50676 69.9572C5.56846 68.3188 5.33388 66.9432 5.47824 63.62C5.60455 60.2505 5.80303 58.6894 6.41654 55.9691C7.44506 51.3476 9.52016 47.5608 12.1907 45.3506C13.6703 44.1295 16.1063 43.1712 18.416 42.9239C19.0295 42.8466 19.5708 42.7848 19.6069 42.7693C19.643 42.7693 19.8415 42.8312 20.058 42.9239Z" fill="black" fill-opacity="0.7"/>
</svg>

<svg xmlns="http://www.w3.org/2000/svg" width="77" height="79" fill="none"><path fill="#000" fill-opacity=".7" d="M34.53.156C27.24 1.192 21.159 5.04 17.929 10.682c-3.645 6.337-2.761 14.173 2.22 19.784 1.316 1.484 3.77 3.431 5.63 4.482 3.085 1.763 6.315 2.705 10.14 2.999 6.893.51 13.046-1.422 17.864-5.642 4.71-4.111 6.82-9.165 6.261-15.023-.433-4.56-2.526-8.378-6.405-11.716-3.176-2.736-6.84-4.452-11.17-5.24-1.913-.355-6.063-.433-7.94-.17Zm7.65 4.884c2.941.634 4.962 1.639 7.38 3.633 1.624 1.329 3.158 3.153 3.88 4.636 1.768 3.617 1.714 8.192-.144 11.624-1.678 3.091-4.53 5.595-8.12 7.079-1.931.803-3.284 1.113-5.54 1.298-5.377.433-10.087-1.051-13.786-4.328-2.255-2.01-3.573-4.034-4.348-6.708-.47-1.623-.415-5.286.108-6.955 1.39-4.483 5.936-8.64 10.989-10.047 2.797-.773 6.712-.865 9.581-.232Z"/><path fill="#000" fill-opacity=".7" d="M18.11 38.287c-8.987.85-14.87 6.8-17.125 17.296-.613 2.89-.812 4.544-.956 7.96-.163 4.25.343 6.553 1.967 9.057 1.93 2.952 5.305 5.07 9.617 6.028l1.624.371h50.524l1.606-.355c5.666-1.237 9.69-4.575 11.133-9.228.74-2.396.65-8.114-.216-12.628C74.119 45.32 68.2 39.122 58.637 38.287c-.993-.093-2.075-.124-2.4-.062-.866.14-2.075.68-5.017 2.288-3.193 1.746-3.392 1.824-5.792 2.566-2.526.772-4.51 1.081-6.929 1.081-2.418 0-4.403-.309-6.929-1.081-2.436-.742-2.562-.804-6.135-2.752-1.624-.896-3.212-1.715-3.537-1.824-.83-.309-2.129-.386-3.789-.216Zm1.948 4.637c.216.093 1.606.835 3.086 1.638 3.085 1.7 4.565 2.319 7.488 3.138 5.684 1.592 11.025 1.484 16.98-.34 1.966-.603 3.915-1.468 6.694-3.014 2.977-1.654 2.76-1.577 4.222-1.422 5.648.603 9.474 4.235 11.549 10.959 1.299 4.235 1.93 11.267 1.263 13.972-.776 3.122-3.23 5.317-6.965 6.229-1.083.263-2.508.278-25.785.278-27.049 0-25.443.062-27.97-.974-1.713-.695-3.32-2.024-4.113-3.43-.939-1.64-1.173-3.015-1.029-6.338.127-3.37.325-4.93.939-7.65 1.028-4.622 3.103-8.41 5.774-10.62 1.48-1.22 3.915-2.179 6.225-2.426.613-.077 1.155-.14 1.19-.155.037 0 .235.062.452.155Z"/></svg>
